X: 36778
T: Shepherd's Hey
R: reel
M: 4/4
K: Gmajor
|BcdB c2 dc|BcdB ADFA|BcdB (3cdc Bc|dBAF DGGA:|
|:BAGB c2 dc|BAGB ADFA|BcdB cABc|dBAF DGGA:|

